X: 1427
T: An Tulach
R: mazurka
M: 3/4
K: Dmajor
|:f2|gf eb ag|fA d2 df|eA c2 ce|fA d2 df|
gf eb ag|fA d2 df|eA c2 ce|d4:|
|:f2|eA c2 cA|fA d2 df|eA g2 gA|fA d2 df|
gf eb ag|fA d2 df|eA c2 ce|d4:|

